X: 34388
T: Rice's Flute
R: reel
M: 4/4
K: Gmajor
DG~G2 BcdB|cBAg fgag|fdag fd~d2|cA~A2 FGAF|
DG~G2 BcdB|cBAg fgag|fdag fd~d2|1 cAFA G3E:|2 cAFA G2ab||
c'bag fd~d2|babg fd~d2|agab c'bag|fdd^c d2B=c|
dB~B2 GBdg|ec~c2 c'bag|fgaf gdBd|cAFA G2ab|
c'bag fd~d2|c'dbd ad~d2|agab c'bag|fdd^c d2B=c|
dB~B2 bdgd|ec~c2 c'bag|fgaf gdBd|cAFA G3E||

